!!!COM: Palestrina, Giovanni Perluigi da
!!!OPR: Missa Ad coenam Agni
!!!OMD: Benedictus
!!!OTL: First Section
**kern	**kern	**kern	**kern
*Itenor	*Itenor	*Icalto	*Icant
!Tenor 2	!Tenor 1	!Altus	!Cantus
*clefGv2	*clefGv2	*clefG2	*clefG2
*k[]	*k[]	*k[]	*k[]
*G:mix	*G:mix	*G:mix	*G:mix
*M4/2	*M4/2	*M4/2	*M4/2
=1	=1	=1	=1
0r	0r	0d	0r
=2	=2	=2	=2
0r	0r	1e	0g
.	.	[1g	.
=3	=3	=3	=3
0r	0d	2g]	0a
.	.	4f	.
.	.	4e	.
.	.	1f#	.
=4	=4	=4	=4
0r	1e	2.g	0g
.	.	4f	.
.	[1g	4e	.
.	.	4d	.
.	.	2e	.
=5	=5	=5	=5
0r	2g]	0d	0a
.	4f	.	.
.	4e	.	.
.	1f#	.	.
=6	=6	=6	=6
0d	[0g	0G	0b
=7	=7	=7	=7
1e	1g]	2.c	0cc
.	.	4d	.
[1g	1c	2e	.
.	.	2c	.
=8	=8	=8	=8
2g]	0r	0d	0a
4f	.	.	.
4e	.	.	.
1f#	.	.	.
=9	=9	=9	=9
1g	0d	1G	0b
1G	.	2r	.
.	.	[2g	.
=10	=10	=10	=10
2.c	1e	4g]	0r
.	.	4f	.
.	.	4e	.
4d	.	4d	.
2e	[1g	2c	.
2d	.	2B	.
=11	=11	=11	=11
1c	2g]	1A	0a
.	4f	.	.
.	4e	.	.
1r	1f#	1d	.
=12	=12	=12	=12
0d	1g	1G	0b
.	1G	1r	.
=13	=13	=13	=13
1e	2.c	0r	0cc
.	4d	.	.
[1g	2e	.	.
.	2c	.	.
=14	=14	=14	=14
2g]	0d	1r	0a
4f	.	.	.
4e	.	.	.
1f#	.	1d	.
=15	=15	=15	=15
2.g	0r	1e	0g
4f	.	.	.
1e	.	[1g	.
=16	=16	=16	=16
0d	1r	2g]	0a
.	.	4f	.
.	.	4e	.
.	1d	1f#	.
=17	=17	=17	=17
2.c	2e	1g	0cc
.	1g	.	.
4B	.	.	.
1A	.	1c	.
.	2f#	.	.
=18	=18	=18	=18
1G	1g	2r	0b
.	.	1d	.
1r	1G	.	.
.	.	[2e	.
=19	=19	=19	=19
0r	1A	4e]	0cc
.	.	4c	.
.	.	1f	.
.	[1c	.	.
.	.	2e	.
=20	=20	=20	=20
1r	2c]	1d	0dd
.	4B	.	.
.	4A	.	.
1d	1B	1G	.
=21	=21	=21	=21
2e	2.c	0r	0cc
1g	.	.	.
.	4B	.	.
.	1A	.	.
2f#	.	.	.
=22	=22	=22	=22
1g	0G	1d	0b
2r	.	2e	.
2d	.	[2g	.
=23	=23	=23	=23
2e	2.c	4g]	0r
.	.	4f	.
2.g	.	4e	.
.	4d	4d	.
.	4e	2.c	.
4f	4f	.	.
4e	[2g	.	.
4d	.	4B	.
=24	=24	=24	=24
1c	2g]	1A	0a
.	4f	.	.
.	4e	.	.
1d	1f#	2r	.
.	.	2d	.
=25	=25	=25	=25
1G	2r	2d	0b
.	2g	2d	.
1r	2g	2.e	.
.	2g	.	.
.	.	4d	.
=26	=26	=26	=26
0r	2.a	4c	0cc
.	.	4B	.
.	.	2A	.
.	4g	.	.
.	2f	2a	.
.	2e	2g	.
=27	=27	=27	=27
1d	2a	2f	0dd
.	1g	2b-	.
2d	.	2a	.
2d	2f#	2a	.
=28	=28	=28	=28
1e	2g	0g	0b
.	2G	.	.
2d	2G	.	.
[2e	2G	.	.
=29	=29	=29	=29
4e]	1A	1r	0cc
4c	.	.	.
1f	.	.	.
.	[1c	1g	.
4e	.	.	.
4d	.	.	.
=30	=30	=30	=30
1e	1c]	2g	0cc
.	.	2g	.
1f	1F	1a	.
=31	=31	=31	=31
1d	0G	2.g	0b
.	.	4f	.
2.g	.	2e	.
.	.	2d	.
4f	.	.	.
=32	=32	=32	=32
2e	[0A	2c	0r
2d	.	2f	.
2c	.	2e	.
2f	.	[2d	.
=33	=33	=33	=33
1e	1A]	2d]	0a
.	.	2c#	.
1d	2r	1d	.
.	2d	.	.
=34	=34	=34	=34
2r	2d	1r	0b
2G	2d	.	.
2G	2.e	2r	.
2G	.	2e	.
.	4d	.	.
=35	=35	=35	=35
1A	4c	2e	0cc
.	4B	.	.
.	2A	2e	.
1F	2a	2.f	.
.	2a	.	.
.	.	4e	.
=36	=36	=36	=36
0G	0g	4d	0b
.	.	4c	.
.	.	4B	.
.	.	4A	.
.	.	2G	.
.	.	[2g	.
=37	=37	=37	=37
1.d	1r	2g]	0a
.	.	4f	.
.	.	4e	.
.	2r	2f#	.
2d	2d	2f#	.
=38	=38	=38	=38
1G	2d	0g	0b
.	2d	.	.
1r	2e	.	.
.	[2g	.	.
=39	=39	=39	=39
2r	2g]	1d	0a
2d	4f	.	.
.	4e	.	.
2d	2f#	1r	.
2d	2f#	.	.
=40	=40	=40	=40
2e	1g	1r	[0g
1c	.	.	.
.	[1G	1d	.
4B	.	.	.
4A	.	.	.
=41	=41	=41	=41
1B	1G]	2d	1g_
.	.	2d	.
1c	2r	2e	1g_
.	2c	[2c	.
=42	=42	=42	=42
1G	2d	2c]	0g]
.	2d	2B	.
2r	1e	2.c	.
[2g	.	.	.
.	.	4d	.
=43	=43	=43	=43
4g]	1c	1e	[0g
4f	.	.	.
1e	.	.	.
.	1c	1e	.
4d	.	.	.
4c	.	.	.
=44	=44	=44	=44
[0B	[0G	[0d	1g_
.	.	.	1g_
=45	=45	=45	=45
0B]	0G]	0d]	0g]
*-	*-	*-	*-
!!!CDT: 1525/^1526/-1594/2/2
!!!OCY: Italia
!!!AGN: Mass (Canonic)
!!!AST: renaissance, vocal
!!!ASW: Hymn
!!!PWK: Masses, Book I
!!!RNB: Cadence finals: C
!!!YOR: Le Opere Complete, v. 1, p. 125
!!!YOO: Rome, Italy: Fratelli Scalera
!!!END: 1992//
!!!EED: John Miller
!!!YEC: Copyright 2000, John Miller
!!!YEN: United States of America
!!!YEM: Rights to all derivative electronic formats reserved.
!!!YEM: Refer to licensing agreement for further details.
!!!YEM: This file must be accompanied by the licensing agreement.
!!!YEM: A copy of the licensing agreement may be found at http://www.music-cog.ohio-state.edu/HumdrumDatabases/Palestrina/license.txt
!!!EMD: converted to Humdrum by Bret Aarden
